front/src/images/trash.svg

<svg xmlns="http://www.w3.org/2000/svg" width="18" height="20">
  <path d="M6 0c-.26522 0-.519491.105433-.707031.292969C5.105439.480506 5 .734784 5 1v3H0v2h2v13c0 .2652.105439.519531.292969.707031C2.480509 19.894531 2.73478 20 3 20h12c.2652 0 .519531-.105469.707031-.292969S16 19.2652 16 19V6h2V4h-5V1c0-.265216-.105469-.519494-.292969-.707031C12.519531.105433 12.2652 0 12 0H6zm1 2h4v2H7V2zM4 6h10v12H4V6zm2 2v8h2V8H6zm4 0v8h2V8h-2z"/>
</svg>

<?xml version="1.0" encoding="UTF-8" standalone="no"?>
<svg
   xmlns:dc="http://purl.org/dc/elements/1.1/"
   xmlns:cc="http://creativecommons.org/ns#"
   xmlns:rdf="http://www.w3.org/1999/02/22-rdf-syntax-ns#"
   xmlns:svg="http://www.w3.org/2000/svg"
   xmlns="http://www.w3.org/2000/svg"
   xmlns:sodipodi="http://sodipodi.sourceforge.net/DTD/sodipodi-0.dtd"
   xmlns:inkscape="http://www.inkscape.org/namespaces/inkscape"
   width="18"
   height="20"
   viewBox="0 0 18 20"
   fill="none"
   version="1.1"
   id="svg6"
   sodipodi:docname="trash.svg"
   inkscape:version="0.92.3 (2405546, 2018-03-11)">
  <metadata
     id="metadata12">
    <rdf:RDF>
      <cc:Work
         rdf:about="">
        <dc:format>image/svg+xml</dc:format>
        <dc:type
           rdf:resource="http://purl.org/dc/dcmitype/StillImage" />
      </cc:Work>
    </rdf:RDF>
  </metadata>
  <defs
     id="defs10" />
  <sodipodi:namedview
     pagecolor="#ffffff"
     bordercolor="#666666"
     borderopacity="1"
     objecttolerance="10"
     gridtolerance="10"
     guidetolerance="10"
     inkscape:pageopacity="0"
     inkscape:pageshadow="2"
     inkscape:window-width="2560"
     inkscape:window-height="1379"
     id="namedview8"
     showgrid="false"
     inkscape:zoom="11.8"
     inkscape:cx="0.44067797"
     inkscape:cy="10"
     inkscape:window-x="0"
     inkscape:window-y="27"
     inkscape:window-maximized="1"
     inkscape:current-layer="svg6" />
  <path
     d="M 6 0 C 5.73478 0 5.4805087 0.10543275 5.2929688 0.29296875 C 5.1054388 0.48050575 5 0.734784 5 1 L 5 4 L 0 4 L 0 6 L 2 6 L 2 19 C 2 19.2652 2.1054388 19.519531 2.2929688 19.707031 C 2.4805088 19.894531 2.73478 20 3 20 L 15 20 C 15.2652 20 15.519531 19.894531 15.707031 19.707031 C 15.894531 19.519531 16 19.2652 16 19 L 16 6 L 18 6 L 18 4 L 13 4 L 13 1 C 13 0.734784 12.894531 0.48050575 12.707031 0.29296875 C 12.519531 0.10543275 12.2652 -3.7007434e-17 12 0 L 6 0 z M 7 2 L 11 2 L 11 4 L 7 4 L 7 2 z M 4 6 L 6 6 L 14 6 L 14 18 L 4 18 L 4 6 z M 6 8 L 6 16 L 8 16 L 8 8 L 6 8 z M 10 8 L 10 16 L 12 16 L 12 8 L 10 8 z "
     id="path2"
     style="fill:#000000" />
</svg>
